X:1
T: The Miller of Drone
C:
R:Strathspey
Q: 128
K:F#m
M:4/4
L:1/16
|:cB|A3F FA3 E3F E3C|A,A,3 d3c B4 B2cB|A3F FA3 E3F EC3|DF3 E3G A4 A2cB|
A3F FA3 E3F E3C|A,A,3 d3c B4 B2cB|A3F FA3 E3F EC3|DF3 E3G A4 A2cd|
ec3 ca3 e3e fedc|ec3 ca3 f4 f3a|ec3 ca3 e3e fedc|d3B c3A F4 F2cd|
ec3 ca3 e3e fedc|ec3 ca3 f4 f3g|((3a2g2f2) ((3e2f2g2) ((3a2e2d2) ((3c2B2A2) |d3B c3A F4 F2:|
